X:13
T: Le'f Gefuodesch, d' Hinger rotschen, S. 51
N: S0076
O: Luxemburg
S: Die Bauernhochzeit in frheren Zeiten]
R: ??, Trinklied]
M: 3/4
L: 1/16
K: G
d3c | B4G4B3c | d4d4
F2G2 | A4F2F2G2E2 | D4z4
d3c | B4G4B3c | d4d4
F2G2 | A4F2F2G2E2 | D4z4
F2G2 | A4A4B2G2 | A4A4
B2c2 | d4d4c2B2 | A4z4
B2G2 | d4d4B2G2 | d4d4
G2A2 | B4B2d2A2B2 | G4z4

@@@ Tune index: 8067
